X:1
T:Title
%%score { 1 | 2 }
L:1/8
Q:1/4=100
M:6/8
K:Bb
V:1 treble nm="Grand Piano"
V:2 bass 
V:1
 [DF]2 [DF] [DF]2 [B,D] | [EG]2 [EG] [DF]3 | d2 d c2 c |[M:15/16] B->BB[^FA]3/2- [FA]3 | %4
w: Asa~Hull * * *||||
[M:3/4] G2 G [GB]2 [EG] | [EG]2 [DF] [DF]3 | d2 d c2 B | G3 F3 |[M:5/8] [DF]-[DF]- [DF]3 |] %9
w: |||||
V:2
 [B,,B,]2 [B,,B,] [B,,B,]2 [B,,F,] | [B,,B,]2 [B,,B,] [B,,B,]3 | %2
 [B,F]2 [B,F][K:bass] [F,A,E]2 [F,A,E] | %3
[M:15/16][K:treble] [G,B,D]->[G,B,D][G,DG][K:bass][D,D]3/2- [D,D]3 | %4
[M:3/4] [E,B,]2 [E,B,E] [E,B,]2 [E,B,] | [B,,B,]2 [B,,B,] [B,,B,]3 | %6
 [B,F]2 [A,B,F][K:bass] [F,A,E]2 [G,B,D] | [E,B,E]3 [F,A,E]3 |[M:5/8] [B,,B,]-[B,,B,]- [B,,B,]3 |] %9

